X:1
T:St. James Infirmary
C:1928 - Don Redman / Irving Mills
Z:Copyright © www.realbook.site
L:1/4
M:4/4
I:linebreak $
K:Dmin
V:1 treble nm=" " snm=" "
V:1
 D F ||"Dm" A2 A2 |"A7" G2 A G |"Dm" F2 D2- | D2 D F |$"Dm" A2 A2 |"Gm" d3 B |"A7" A4- | A2 D F ||$ %9
"Dm" A3 A |"A7" G2 A G |"Dm" F2 D2- |"F7" D3 D/E/ |$"Bb7" F2 F2 |"A7" E3 F |"Dm" D4- | D z z2 |] %17

